X: 20881
M: 2/4
L: 1/16
K: F
V: 1 name="1"
(3(cde) |\
f2f2 f2{c}af | [g2c2] [g4c4] bg | agfe fcaf | [g2c2][g2c2] [gc]cde |\
f2 f4 af | g2 g4 bg | bagf cbge | f2f2f2 H|]
c2 |\


